X:5
T:Scotsman over the Border, The
R:jig
H:Related to The Carraroe Jig, #181
D:Music at Matt Molloy's.
D:Noel Hill & Tony Linnane.
D:Molloy, Peoples, Brady.
Z:id:hn-jig-5
M:6/8
K:D
DED FDF | AFA d2A | ~B3 BAB | dgf edB |
ADD FDF | AFA d2A | ~B3 AFA | dAF ~E3 :|
|: dfa afa | bag fef | dfa afe | def edB |
dfa afa | bag fed | B2B AFA | dAF ~E3 :|
P:variations
|: ~D3 FDF | AFA d2A | ~B3 BAB | def edB |
ADD ~F3 | AFA d2A | BdB AFA |1 dAF EFE :|2 dAF EFA ||
|: dfa afa | bag fge | dfa afe | def edB |
dfa af/g/a | bag fge | d2B AFA |1 dAF EFA :|2 dAF EFE ||
<end>
<start>
